X:1
T:Title
%%score { ( 1 3 ) | ( 2 4 ) }
L:1/8
Q:1/4=100
M:4/4
K:C
V:1 treble nm="Grand Piano"
V:3 treble 
V:2 bass 
V:4 bass 
V:1
 G2 A>B c3 G | FEDC G3 [Ec] | [DB]3 [Fd] [FA]2 [FB]2 | [Ec]6 E2 | ED D2- DAAG | G6 z2 | %6
w: D.~A.~Duff * * * *||||||
 cB B2- Bddc | c6 z2 | ed d2- dffe | [Ge]6 [Ec]2 | A3 d c2 [DB]2 |[M:3/4] [Ec]6 |] %12
w: ||||||
V:2
 G,2 A,>B, C3 G, | F,E,D,C, G,3 [C,G,] | [G,,G,]3 [G,,G,] [G,,G,]2 [G,,G,]2 | [C,G,]6 C2 | %4
 CB, B,2- B,[K:treble]FFE | E6[K:bass] z2 | ED[K:treble] D2- DFFE | E6[K:bass] z2 | %8
 [G,CG][G,B,G] [G,B,G]2- [G,B,G][G,DG][G,DG][G,CG] | [C,C]6 [C,C]2 | %10
 [F,CF]3 [F,A,F] [G,E]2 [G,,G,]2 |[M:3/4] [C,G,]6 |] %12
V:3
 x8 | x8 | x8 | x8 | x8 | z2 C2 C2 c2 | x8 | z2 G,2 G,2 [Ge]2 | x8 | x8 | x8 |[M:3/4] x6 |] %12
V:4
 x8 | x8 | x8 | x8 | x5[K:treble] x3 | z2[K:bass] C,2 C,2 E2 | x2[K:treble] x6 | %7
 z2[K:bass] C,2 C,2 [C,C]2 | x8 | x8 | x8 |[M:3/4] x6 |] %12

